X: 7
T: The Haunted House
R: jig
M: 6/8
L: 1/8
K: Amaj
A2A BAB|cAF FEF|Ace fae|fae fec|A2A BAB|cAF FEF|Ace faf|ecB A2E:|
|:Ace fae|fae fec|Acd ~e3|efe ecB|1 Ace fae|fae fec|
Ace faf|ecB A2E:|2 A2A BAB|cAF FEF|Ace faf|ecB A2E||


Tune 1098	Setting 14343

